!!!ONB: MCCC : ILB0192_03 : Extracted Monophonic Melody
!!!COM: Beethoven, Ludwig van
!!!OPR: Piano Sonata No.31
!!!OMV: 3
!!!SCT: Op.110
!!!ODT: 1821///
**kern
*thru
*staff1
*clefG2
*k[b-e-a-d-g-]
*a-:
*M4/4
*MM60
=1
8..ff
32ff
8gg-
8a
8b-
8ff
8aa-
8gg-
=2
4gg-
4aa-
4d-
4f-
=3
4e-
8f-
8ff-
8r
8B-
8r
8e-
=4
*M7/4
8r
48G
48B-
48d-
48e-
48g
48b-
4dd-[
8.dd-]
16b-
8a-
8g[
16g]
32b-
32dd-
32ff-
16ee-
32b-
16dd-
16cc-
8r
4r
=5
*M4/4
32a
16.aa
16aa[
16aa]
16aa[
16aa]
16.aa[
32aa]
32aa
32aa
32aa[
32aa]
32aa
32aa
32aa
32aa
32aa[
32aa]
8.r
=6
*k[f#c#g#d#]
*M17/16
32aa[
32aa]
32aa[
32aa]
32aa[
32aa]
32aa[
32aa]
32aa
32aa[
8aa]
8ff#
8dd#
8a
12cc#
12b
12a
=7
*M5/4
8g#
4ee
8g
*k[b-e-a-d-g-c-]
4cc-
8b-
8a-
8.g
16a-
=8
*M12/16
8.a-
8.e-
16e-
16e-
16e-
16e-
16e-
16e-
=9
16e-
16e-
16e-
16e-
16e-
16e-
16e-
16e-
16e-
16e-
16e-
16e-
=10
[8.ee-
8ee-]
[16dd-
8dd-]
16cc-
16b-
16cc-
16a-
=11
8.a-
[8.g
8g]
[16ff-
8ff-]
16ee-
=12
8ee-
[16aa-
8aa-]
[16gg-
8gg-]
16ff-
8ee-
16dd-
=13
[8.cc-
16cc-]
16dd-
32ee-
64dd-
64cc-
[8.b-
16b-]
16cc-
16dd-
=14
4.cc-
4.dd-
=15
4.ee-
8.ff-
8.aa-
=16
8gg-
16ccc-
8aa-
[16aaa-
8aaa-]
16ggg-[
16ggg-]
16eee-
32fff-
32bb-
=17
4.ddd-
8.ccc-
[8.ee-
=18
8.ee-]
8.b--
8.a-
8gg-
16ee-
=19
8.gg-
[8.ff-
8.ff-]
8.ee-[
=20
8ee-]
16dd-[
8dd-]
[16cc-
8cc-]
16b-[
16b-]
16cc-
16a-
=21
4.a-
8.g
8.e-
=22
4.a-
4.g
=23
4.cc-
8.b-
8.cc
=24
8.dd-[
16dd-]
16ee-
[16ff-
8ff-]
[16ee-
8ee-]
16g
=25
4.b-
4.a-
=26
8.B-
8.e-
8A-
16r
16A-
16r
16r
=27
4.A-
*k[b-e-a-d-]
*MM110
*M6/8
4r
8r
=28
2.r
=29
2.r
=30
2.r
=31
4r
8r
4.e-
=32
4.a-
4.f
=33
4.b-
4.g
=34
4.cc
4b-
8a-
=35
4.g
[4.b-
=36
4.b-]
4a-
8g-
=37
4.f
4.a-
=38
4.dd-
4.b-
=39
4.ee-
4.cc
=40
4.ff
4ee-
8dd-
=41
4.cc
4.ee-[
=42
4.ee-]
4dd-
8cc
=43
4.b-
4.dd-[
=44
4.dd-]
4cc
[8b-
=45
4b-]
[8b-
4b-]
8a-
=46
4f
16e-
[16f
8f]
8e-
8d-
=47
8c
8b-
8g
4.a-
=48
4.g
[4.b-
=49
8b-]
8g
8a-[
8a-]
8b-
8cc[
=50
8cc]
8a
8b-
8e-
8f
8g
=51
8a-
8f
8g[
8g]
8a-
[8b-
=52
8b-]
8g
8a-[
8a-]
8b-
8a-[
=53
8a-]
8f
8g-[
8g-]
8a-
8g-[
=54
8g-]
8e
[8f
8f]
8d
8e-
=55
8g
8a-
8f
8e-
8f
8g
=56
8a-
8b-
8g-
8f
8g
8a
=57
4b-
8a-
8g
8a-
[8b-
=58
4.b-]
[4.a-
=59
4.a-]
[4.g
=60
8g]
8a-
8g
8f
8e
8f
=61
8g
8a-
8f[
8f]
8d
8e
=62
8f
8g-
8e-
8d-
8c
8d-[
=63
8d-]
8c
8e-
4.e-
=64
4.a-
4.f
=65
4.b-
4.g
=66
4.cc
4b-
8a-
=67
4.g
[4.dd-
=68
4.dd-]
4cc
8b-
=69
4.a
4.ee-[
=70
4.ee-]
4dd
8cc
=71
4b
8ee-
4.aa-[
=72
4.aa-]
4gg
8ff
=73
4.ee-
4ff
8dd
=74
4.ee-
4.dd[
=75
8dd]
8ee-
8cc
8cc
8dd
8ee-[
=76
8ee-]
8ff
8ee-
8dd
8ee-
8ff
=77
4gg
8f
8e-
8f
8g[
=78
8g]
8a-
8g
8f
8g
8a-
=79
8aa-
8bb-
8gg[
8gg]
8aa
8bb-[
=80
8bb-]
8ccc
8bb-
8aa
8bb-
8ccc
=81
4ddd-
8b-
4.ff[
=82
4.ff]
4a
8cc
=83
4b-
8dd-
4cc
8ee-
=84
4dd-
8ff
[4.ee-
=85
2.ee-_
=86
4.ee-]
4g
8b-
=87
4a-
8cc
4b-
8dd-
=88
8cc
8dd-
8ee-
4ff
8r
=89
4.g-
4.e-
=90
4.a-
4.f
=91
4.b-
4a-
8g-
=92
8f
8g-
8f
4.a-
=93
4.dd-
4.b-
=94
4.ee-
4.cc
=95
4.ff
4ee-
8dd-
=96
4cc
8ee-
4dd-
8cc
=97
4b-
8dd-
4cc
8b-
=98
4a-
8cc
4b-
8a-
=99
8g
8cc
8b-
8a-
8b-
8cc[
=100
8cc]
8b-
8a-
8g
8a-
8b-[
=101
8b-]
8a-
[8g-
4g-]
8g-[
=102
4g-]
8f[
8f]
8e-
8d-
=103
8d-
8B
[8c
8c]
8d-
[8e-
=104
8e-]
8c
8d-[
8d-]
8B-
8e-[
=105
8e-]
8d
8c
8d
8e-
[8f
=106
8f]
4e-
4.a-
=107
4.dd-
4.b-
=108
4ee-
8cc
4ff
8dd-
=109
4gg
8ee-
8aa-
8gg
8ff[
=110
8ff]
8ee-
8dd-
8cc
8dd-
8b-
=111
4.b-
8dd-
8b-
8g
=112
8d-
8B-
8G
4r
8r
=113
4r
8r
4.r
=114
8d-
8g
8b-
4.dd-[
=115
*M12/16
*MM60
4.dd-]
16dd
16b-
16g
16d
16B-
16G
=116
8.r
16r
16d
16d
16d
16d
16d
16d
16d
16d
=117
*k[b-e-]
[8.dd
8dd]
16cc
16cc
16b-
32r
32a
16a
16b-
32r
32g
=118
8g
[16f#
8f#]
16ee-
16r
16ee-
32ff
32ee-
16r
16dd
32ee-
32dd
=119
8dd
16gg[
16gg]
16gg
16ff
16r
16ff
16ee-
16r
16dd
16cc[
=120
16cc]
16b-
32cc
32dd
16r
16dd
32cc
32b-
8.b-
8.a
=121
[8.b-
16b-]
16a
32b-
32r
[8.cc
16cc]
16b
32cc
32r
=122
[8.dd
16dd]
16cc#
16dd
16r
16dd
16ee-
16r
16ff#
16gg
=123
16r
32gg
32ff
16bb-[
16bb-]
32aa
32gg
16ggg[
16ggg]
16fff
16dd
16.r
32ff
32ee-
32a
=124
4.cc
8.b-
8.dd
=125
[8dd
16dd]
8r
[16a-
8a-]
16g
8ff
16dd
=126
8ff
[16ee-
8.ee-_
16ee-]
16ee-[
16ee-]
16r
16dd[
16dd]
=127
16r
16cc[
16cc]
16r
16b-[
16b-]
16r
16a-[
16a-]
16r
[16g
16g]
=128
8g
16b-[
16b-]
16a
[16g
8g]
16f#
16r
16r
16d
=129
[8.g
8g]
16g
16f#
16r
16f#
16r
16r
16d
=130
[8.b-
8b-]
16b-
16a
16r
16a
16r
16r
16b
=131
16r
16r
32b
32cc
16r
16r
32ff
32ee-
16r
16r
32ee-
32dd
16r
16r
32g
32f#
=132
8.r
8.a
8g
16r
8.r
=133
16r
16r
16A
16r
16r
16d
16r
16r
16B
16r
16r
16B
=134
16r
16r
16B
16r
16r
16B
16r
16r
16B
16r
16r
16B
=135
16r
16r
16d
16r
16r
16d
16r
16r
16d
16r
16r
16d
=136
4r
8r
8r
16r
8r
16G
=137
8B
16d
8g
16b
*k[f#]
*M6/8
*MM110
4.dd
=138
4.a
4.cc
=139
4.g
4.b
=140
4.f#
4g
8a
=141
4.b
4.gg
=142
4.dd
4.ff#
=143
4.cc#
4.ee
=144
4.a
4b
8cc#
=145
8dd
8cc
[8b
4b]
8b
=146
8cc
8b
8a[
8a]
8g
8a
=147
[8b
8b]
8g[
4.g]
=148
8a
8b
8a
4b
8cc[
=149
8cc]
8b
8dd
4.gg
=150
4.dd
4.ff
=151
4cc
8dd
4.ee-
=152
4a
[8dd
4dd]
8cc
=153
4b
8r
4r
8g[
=154
*k[b-e-]
*MM80
4.g]
4.cc
=155
4.cc
[4.a
=156
4.a]
4.dd[
=157
4.dd]
[4.b-
=158
4.b-]
4.ee-
=159
4.ee-
4.dd
=160
4.dd
[4.cc
=161
4cc]
8b
8cc
8ff
8dd
=162
8gg
8ee
8aa-[
16aa-]
16gg
8ff
8cc[
=163
8cc]
8a-
8cc[
16cc]
16b-
8a
8aa[
=164
8aa]
8ff#
8bb-[
16bb-]
16aa
8gg
8d[
=165
8d]
8B
8g[
16g]
16f
8e-
8b-[
=166
8b-]
8g
8ee-[
16ee-]
16dd-
8cc
8f[
=167
8f]
8c
8b-[
8b-]
8ee-
8e-[
=168
8e-]
8B-
8a-[
8a-]
8dd
8d[
=169
4d]
16e-
16a-
16g
16cc
32b-
32a-
16g
16B-
16e-
=170
8a-
32f
32e-
16d
8r
16g
16cc
32b-
32a-
16g
16ee-
16aa-
=171
16gg
16ccc
32bb-
32aa-
16gg
32b-
32a-
16g
16gg-
16eee-
16ccc
16fff
32eee-
32ddd-
16ccc
=172
4.a
16ff
16ccc
16bb-
16eee-
32ddd-
32ccc
16bb-
=173
4.g
16ee-
16bb-
16aa-
16ddd-
32ccc
32bb-
16aa-
=174
4.f
4g
8a-
=175
*k[b-e-a-d-]
*MM60
16gg
16dd
16ff
16dd-
32ff
32ee-
16dd-
8cc
16g
16a-
16c
16g-
=176
16A-
16g-
16A-
16e
16A-
16f
16d-
16f
16d-
16cc
16d-
16b-
=177
16B-
16a-
16B-
16f#
16B-
16g
16e-
16g
16e-
16b-
16e-
16a-
=178
16d
16a-
16g
16b-
16d
16a-
16c
16a-
16B-
16a-
16f
16g
=179
16e-
16a-
16e-
16b-
16e-
16cc
16b-
16ee-
16b-
16dd-
16cc
16dd-
=180
16b-
16dd-
16b
16dd-
16b
16cc
16cc
16aa-
16cc
16bb-
16cc
16aa-
=181
16dd
16gg
16dd
16ee
16dd
16ff
16ee-
16bb-
16ee-
16ccc
16ee-
16bb-
=182
16ee-
16bb-
16ee-
16gg
16ee-
16aa-
16dd
16aa-
16dd
16bb-
16dd
16ccc
=183
16ee-
16ccc
16ee-
16aa
16dd-
16bb-
16dd-
16aa-
16dd-
16ff
16dd-
16gg
=184
16dd-
16gg
16dd-
16ee-
16dd-
16ff
16dd-
16gg
16cc
16aa-
16cc
16bb-
=185
16dd-
16bb-
16aa-
16ddd-
16bb-
16eee-
4.aa-
=186
4.ddd-
4.bb-
=187
4.eee-
4.ccc
=188
4.fff
4eee-
8ddd-
=189
4.ccc
[4.aa-
=190
4.aa-]
4gg
8ff
=191
4.ee-
[4.ccc
=192
4.ccc_
4ccc]
8aa-
=193
4.gg
[4.fff
=194
4.fff]
4eee-
8ddd-
=195
4.ccc
[4.aaa-
=196
4.aaa-]
4ggg
8fff
=197
4.eee-
4fff
8bb-
=198
4.ccc
4bb-
8eee-
=199
4.ddd
4.ddd-
=200
4.ccc
4ddd-
8bb-
=201
8ccc
4bb-
4.aa-
=202
4.ddd-
4.bb-
=203
4.eee-
4.ccc
=204
4.fff
4.ddd
=205
*8va
4.ggg-
4fff
8eee-
=206
2.fff
=207
4.aaa-
4ggg-
8fff
=208
2.ggg
=209
4.bbb-
4aaa-
8ggg
=210
16cccc
16aaa-
16eee-
16aaa-
16eee-
16ccc
16eee-
16ccc
16aa-
16ccc
16aa-
16ee-
*X8va
=211
16cc
16a-
16e-
16a-
16e-
16c
4.r
=212
8r
16r
16AA-
16C
16E-
8r
16r
16A-
16c
16e-
=213
8r
16r
16a-
16cc
16ee-
8r
16r
16aa-
16ccc
16eee-
=214
4aaa-
8r
==
*-
